public/img/quarter-icon-6.svg

<svg width="55" height="55" viewBox="0 0 55 55" fill="none" xmlns="http://www.w3.org/2000/svg">
<g clip-path="url(#clip0)">
<path d="M53.3337 46.6437L53.3084 46.6184L53.338 46.5846L52.5819 45.9468L47.3278 41.0643C47.3278 41.0643 47.2348 41.1615 47.0828 41.3051L46.9434 41.4571C45.7481 42.5764 41.9004 45.8159 37.3896 45.8792C37.2925 45.8792 37.1996 45.8792 37.1024 45.8792C34.7245 45.6174 32.41 44.3461 30.0659 41.9851C26.1633 38.0656 21.8341 35.9411 17.167 35.6497C17.0403 35.6497 16.9094 35.6497 16.7784 35.6497C16.0763 35.5873 15.371 35.569 14.6666 35.5948C7.64276 35.882 2.41819 40.5913 0.648499 42.4074C0.281045 42.758 0.0487343 43.003 0.0022746 43.0494L0.0318687 43.0748L-0.00195312 43.1128L0.754089 43.7463L6.01246 48.633C6.01246 48.633 6.10541 48.5359 6.25746 48.3881L6.39682 48.236C7.59632 47.1125 11.4398 43.873 15.9506 43.8139C16.0478 43.8139 16.1449 43.8139 16.2421 43.8139C18.6157 44.0715 20.9302 45.3471 23.2786 47.7081C27.1769 51.6276 31.5062 53.7478 36.1732 54.0435C36.3042 54.0435 36.4351 54.0435 36.5618 54.0435C37.2639 54.1057 37.9692 54.1241 38.6736 54.0984C45.6975 53.8112 50.9221 49.0976 52.6917 47.2815C53.0634 46.9309 53.2915 46.6902 53.338 46.6395" fill="#FFD100"/>
<path fill-rule="evenodd" clip-rule="evenodd" d="M12.8933 3.41502C20.0143 5.48881 27.1015 5.15514 34.2225 3.41502C34.9996 3.22495 35.7092 4.01899 35.7092 4.74123V22.3283C35.7092 28.2878 30.2185 33.1661 23.5579 33.1661C16.8973 33.1661 11.4023 28.2878 11.4023 22.3283V4.74123C11.4023 4.01899 12.1119 3.19539 12.8933 3.41502ZM37.6056 4.71166C42.3988 5.05253 47.2155 4.61464 51.8687 3.41502C52.6669 3.22495 53.3596 4.01899 53.3596 4.74123V22.3283C53.3596 28.2878 47.8985 33.1661 41.2041 33.1661C38.5562 33.1769 35.9673 32.3846 33.779 30.8938C35.2573 29.5243 36.372 27.8087 37.0227 25.9015C41.8038 27.8148 49.3177 26.1211 49.3177 20.8585H37.6056V4.71166ZM47.9703 10.8739C49.3894 10.8739 50.5594 11.9171 50.5594 13.18C50.5594 14.4428 49.3894 15.4861 47.9703 15.4861C46.5512 15.4861 45.3855 14.4597 45.3855 13.18C45.3855 11.9002 46.5385 10.8739 47.9703 10.8739ZM16.8085 10.8739C18.2277 10.8739 19.3976 11.9171 19.3976 13.18C19.3976 14.4428 18.2277 15.4861 16.8085 15.4861C15.3894 15.4861 14.2237 14.4597 14.2237 13.18C14.2237 11.9002 15.3725 10.8739 16.8085 10.8739ZM15.4612 20.8585H31.6545C31.6545 28.6004 15.4612 28.6004 15.4612 20.8585ZM30.3072 10.8739C31.7432 10.8739 32.8963 11.9171 32.8963 13.18C32.8963 14.4428 31.7432 15.4861 30.3072 15.4861C28.8712 15.4861 27.7224 14.4597 27.7224 13.18C27.7224 11.9002 28.8923 10.8739 30.3072 10.8739Z" fill="#FFD100"/>
</g>
<defs>
<clipPath id="clip0">
<rect width="54.0621" height="54.0621" fill="white"/>
</clipPath>
</defs>
</svg>

<svg width="55" height="55" fill="none" xmlns="http://www.w3.org/2000/svg"><g clip-path="url(#clip0)" fill="#FFD100"><path d="M53.334 46.644l-.026-.026.03-.033-.756-.638-5.254-4.883s-.093.097-.245.241l-.14.152c-1.195 1.12-5.043 4.359-9.553 4.422h-.288c-2.377-.262-4.692-1.533-7.036-3.894-3.903-3.92-8.232-6.044-12.899-6.335h-.389a16.877 16.877 0 00-2.111-.055C7.643 35.882 2.418 40.59.648 42.407c-.367.351-.6.596-.646.642l.03.026-.034.038.756.633 5.258 4.887s.093-.097.245-.245l.14-.152c1.2-1.123 5.043-4.363 9.554-4.422h.291c2.374.258 4.688 1.533 7.037 3.894 3.898 3.92 8.227 6.04 12.894 6.336h.389c.702.062 1.407.08 2.112.054 7.023-.287 12.248-5 14.018-6.816.371-.351.6-.592.646-.642"/><path fill-rule="evenodd" clip-rule="evenodd" d="M12.893 3.415c7.121 2.074 14.209 1.74 21.33 0 .777-.19 1.486.604 1.486 1.326v17.587c0 5.96-5.49 10.838-12.151 10.838-6.66 0-12.156-4.878-12.156-10.838V4.741c0-.722.71-1.546 1.491-1.326zm24.713 1.297c4.793.34 9.61-.097 14.263-1.297.798-.19 1.49.604 1.49 1.326v17.587c0 5.96-5.46 10.838-12.155 10.838a13.093 13.093 0 01-7.425-2.272 12.156 12.156 0 003.244-4.992c4.78 1.913 12.295.22 12.295-5.044H37.606V4.712zm10.364 6.162c1.42 0 2.59 1.043 2.59 2.306 0 1.263-1.17 2.306-2.59 2.306-1.419 0-2.584-1.026-2.584-2.306s1.152-2.306 2.584-2.306zm-31.162 0c1.42 0 2.59 1.043 2.59 2.306 0 1.263-1.17 2.306-2.59 2.306-1.419 0-2.584-1.026-2.584-2.306s1.149-2.306 2.584-2.306zm-1.347 9.984h16.194c0 7.742-16.194 7.742-16.194 0zm14.846-9.984c1.436 0 2.59 1.043 2.59 2.306 0 1.263-1.154 2.306-2.59 2.306s-2.585-1.026-2.585-2.306 1.17-2.306 2.585-2.306z"/></g><defs><clipPath id="clip0"><path fill="#fff" d="M0 0h54.062v54.062H0z"/></clipPath></defs></svg>
